X: 43222
T: With Stars Of Pride And Honour
R: waltz
M: 3/4
K: Gmajor
B2e2B2|d2cBc2|AGA2F2|G4A2|B2g2f2|e4f2|F2 f2e2|
^d4B2|c2e2d2|B2d2c2|AB c2d2|B4G2|c2e2f2|g4G2|
c2B2A2|G4A2|B2BGBd|ecfdg2|f^dec =dB|cAG4||

